X:1
T:КУРОПАТКИНЪ-МАРШЪ.
T:КУРОПАТКИНЪ-МАРШЪ.
T:Б. Ф. КЕЙЛЬ, Op. 153.
T:Z. 6604
T:Z. 6604
T:Z. 6604
T:Z. 6604
T:Z. 6604
C:Б. Ф. КЕЙЛЬ, Op. 153.
Z:Z. 6604
%%score { ( 1 4 ) | ( 2 3 ) }
L:1/8
Q:1/4=90
M:2/4
K:Eb
V:1 treble nm="Piano" snm="Pno."
V:4 treble 
V:2 bass 
V:3 bass 
V:1
"^INTRODUCTION.\nTempo di Marcia.\n"!f! (3BBB !>!_c2 | (3BBB !>!F2 |!<(! (3BBB !>![ABd]!>![ABf] | %3
 !>![Bdb]!<)! z !fermata![DFAB]2 |:S"^Маршъ." [GBe]/[GBe]/[GBe] [GBd]/[GBd]/[GBd] | %5
 .[GBf].[GBe][GB] z/ (PB/ |!<(! .G).B.e.g | .b!<)! z x2 | [ABf]/[ABf]/[ABf] [AB=e]/[ABe]/[ABe] | %9
 .[ABg].[ABf] .[AB] z/ (PB/ |!<(! .A).B.d.f!<)! | .b z x2 | [GBe]/[GBe]/[GBe] [GBd]/[GBd]/[GBd] | %13
 .[GBf].[GBe][GB] z/ (PB/ |!<(! .G).B.e.g!<)! | ._c' z x2 | %16
!f! [df=c']/[dfc']/[dfc'] [Beb]/[Beb]/[Beb] | [Bda]/[Bda]/[Bda] [Beg]/[Beg]/[Beg] | (fe) (dc) | %19
 [G=Bdg] z !>![A_Bdf]2 |!p! [GBe]/[GBe]/[GBe] [GBd]/[GBd]/[GBd] | .[GBf].[GBe][GB] z/ (PB/ | %22
!<(! .G).B.e.g | .b!<)! z x2 | [ABf]/[ABf]/[ABf] [AB=e]/[ABe]/[ABe] | .[ABg].[ABf] .[AB] z/ (PB/ | %26
!<(! .A).B.d.f!<)! | .b z x2 | [GBe]/[GBe]/[GBe] [GBd]/[GBd]/[GBd] | .[GBf].[GBe][GB] z/ (PB/ | %30
!<(! .G).B.e.g!<)! | .[ee'] z x2 |!8va(! [f=ae'f']/[fae'f']/[fae'f'] [^fae'^f']/[fae'f']/[fae'f'] | %33
 [gbe'g']!8va)!!f! !>![ee']!>![dd']!>![cc'] | [Bb] z!>(! ([Adf]>g)!>)! |1 [Ge]!p! (DE=E) :|2 %36
 [Ge]E/E/ E z!fine! ||[K:Bb]"^melodico"!<(! (3F_G=G [Ge]2-!<)! | e2 d2 | (c>F-) B2- | B2 c2 | %41
 (B>E-) A2- | AcBG | G>D F2- | F (DE=E) |!<(! (3F_G=G [Ge]2-!<)! | e2 d2 | (c>F-) B2- | B (Bc^c) | %49
 (3(ddd)!f! (d>A) | (3(ddd)!f! (d>A) | (d>A) (d>A) | d (d[Ee][=E=e]) | %53
!mf!!<(! (3[Ff][_G_g][=G=g]!<)! [ee']2- | [ee']g!>(![dd']f | ([cc']>f)!>)! [Bb]2- | [Bb]f[cc']f | %57
 ([Bb]>e) [Aa]2- | [Aa][cc'][Bb][Gg] | ([Gg]>d) [Ff]2- | [Ff] d[Ee][=E=e] | %61
!<(! (3[Ff][_G_g][=G=g]!<)! [ee']2- | [ee']g[dd']f | ([cc']>f) [Bb]2- | [Bb][Bb][cc'][_d_d'] | %65
!f! ([=d=d']>b)fd | ([Bb]>g)=e_d | [FBf] z (([EFA]2 |SS [DFB])) (.=B!p!.c.d) || %69
[K:C][M:2/4] !>![=B,DG]!f!G/G/ G.A |!>(! .G.F.E.D | .C!>)! z [E,G,C] z |!p! z2 [E,G,C] z | %73
 z2 [E,G,C] z | z .[CEG]!pp! .[CEG].[CEG] |: [CEG]z/[CEA]/ !>![CEA]2- | [CEA][CEA][CEA][CEA] | %77
 [CEA]z/[CEB]/ !>![CEB]2- | [CEB][EGB][EGB][EGB] | [EGB] z{/d} [EGc] z | [CEG] z{/B} [CEA] z | %81
 !>![B,FA]4- | [B,FA]!p! [B,FG][B,FG][B,F^G] | [B,F^G]z/[B,FA]/ !>![B,FA]2- | %84
 [B,FA][^A,F^A][A,FA][B,FB] | [B,FB]z/[CFc]/ !>![CFc]2- | [CFc][^CF^c][CFc][DFd] | %87
 [EFe] z [DFd] z | [B,FB] z [B,FA] z | [CEG]4- | [CEG] [CEG]!p![CEG][CEG] | %91
 [CEG]z/[CEA]/ !>![CEA]2- | [CEA][CEA][CEA][CEA] | [CEA]z/[CEB]/ !>![CEB]2- | %94
 [CEB][EGB][EGB][EGB] | [EGB] z{/d} [EGc] z |1 [EGB] z{/d} [EGc] z |!mf! !>![^GBe]4- | [GBe]eee | %99
 ([Ae]>A) A2- | A [Ad][Ad][Ad] | ([Gd]>G) G2- | G [Gc][Gc][Gc] | ([GB]2 [FA]2) | ([EG]2 [^D^F]2) | %105
 [EG]4- | [EG] [CEG]!p![CEG][CEG] :|2,3,4 [EG] z [E^G] z | [FA]4- | [FA][FA][FA][FA] | %110
!mf! ([Af]>[Ge]) [Fd]2- | [Fd][FA][FA][FA] | ([Ge]>[Fd]) [Ec]2- | [Ec][EG][EG][EG] | %114
!<(! [FG] z [F^G] z | [FA] z [FB] z!<)! | [Ec] z!>(! ([FBd]>e) ||2 [Ec]!>)! z/ E/!f! E>E ||3,4,5 %118
 [Ec] z{G,A,B,} !>!C z || (3EB,E!<(! E2- | E>E!<)! (3FGF | [^G,B,E] z/!sfz! (B/ !>!e2) | %122
 z3/2 G/ G>G | (3GDG G2- |!<(! G>G!<)!!>(! (3_A_BA!>)! | [B,DG] z/!sfz! (d/ !>!g2) | %126
!ff! z3/2 _b/ (3bc'b | [_e_b] z/ g/ (3g_ag | [cg] z/ _e/ (3efe | [_A_e] z/ c/ (3c_dc | %130
 [Fc]>c [_EGc]>c | [_E_Ac] z/ (_a/ _e>c | _A)z/(_e/ [_Ec]>_A | [B,DG])G/G/ GG | %134
 G!p! .[CEG].[CEG].[CEG]!D.S.! |] %135
V:2
 [B,,B,]2 !>![_C,_C]2 | [B,,B,]2 !>![F,,F,]2 | [B,,B,]2 !>![F,,F,]!>![D,,D,] | %3
 !>![B,,,B,,] z !fermata![B,,B,]2 |: [E,,E,][G,B,E] [B,,,B,,][G,B,E] | [E,,E,][G,B,E][G,B,E] z | %6
 .[G,,G,].[B,,B,].[E,E].[G,G] | .[B,B] z !>![E,G,B,]2 | [D,,D,][A,B,D] [B,,,B,,][A,B,D] | %9
 [D,,D,][A,B,D][A,B,D] z | .[A,,A,].[B,,B,].[D,D].[F,F] | .[B,B] z !>![D,F,A,B,]2 | %12
 [E,,E,][G,B,E] [B,,,B,,][G,B,E] | [E,,E,][G,B,E][G,B,E] z | .[G,,G,].[B,,B,].[E,E].[G,G] | %15
 .[_C_c] z !>![E,_G,_C]2 | !>![A,A]2 !>![G,G]2 | !>![F,F]2 !>![E,E]2 | %18
"^dimin." [A,,A,]2 [A,,,A,,]2 | [G,,,G,,] z !>![B,,,B,,]2 | [E,,E,][G,B,E] [B,,,B,,][G,B,E] | %21
 [E,,E,][G,B,E][G,B,E] z | .[G,,G,].[B,,B,].[E,E].[G,G] | .[B,B] z !>![E,G,B,]2 | %24
 [D,,D,][A,B,D] [B,,,B,,][A,B,D] | [D,,D,][A,B,D][A,B,D] z | .[A,,A,].[B,,B,].[D,D].[F,F] | %27
 .[B,B] z !>![D,F,A,B,]2 | [E,,E,][G,B,E] [B,,,B,,][G,B,E] | [E,,E,][G,B,E][G,B,E] z | %30
 .[G,,G,].[B,,B,].[E,E].[G,G] | z2 !>![E,G,B,]2 | [C,,C,]2"^cresc." [_C,,_C,]2 | %33
 [B,,,B,,] !>![E,E]!>![D,D]!>![C,C] | [B,,B,] z [B,,,B,,]2 |1 [E,,E,] z z2 :|2 %36
 [E,,E,]E,/E,/ E,"^Fine." z ||[K:Bb] C,[F,A,E] F,,[F,A,E] | C,[F,A,E] F,,[F,A,E] | %39
 B,,[F,B,D] F,,[F,B,D] | B,,[F,B,D] D,[F,B,D] | C,[F,C] F,,[F,C] | C,[F,C] F,,[F,C] | %43
 B,,[F,B,] F,,[F,B,] | B,,[F,B,] F,,[F,B,] | C,[F,A,E] F,,[F,A,E] | C,[F,A,E] F,,[F,A,E] | %47
 B,,[F,B,D] F,,[F,B,D] | B,,[F,B,D]"^cresc." D,[F,B,D] | [D,^F,A,D]2 [D,,D,]2 | %50
 [D,G,B,D]2 [D,,D,]2 | ([D,^F,A,D]>A,) (D>A,) | D z z2 | C,[F,A,E] F,,[F,A,E] | %54
 C,[F,A,E] F,,[F,A,E] | B,,[F,B,D] F,,[F,B,D] | B,,[F,B,D] D,[F,B,D] | C,[F,A,E] F,,[F,A,E] | %58
 C,[F,A,E] F,,[F,A,E] | B,,[F,B,D] F,,[F,B,D] | B,,[F,B,D] F,,[F,B,D] | C,[F,A,E] F,,[F,A,E] | %62
 C,[F,A,E] F,,[F,A,E] | B,,[F,B,D] F,,[F,B,D] |"^cresc." !>![_G,B,_D=E]4 | ([F,B,=DF]>B)FD | %66
 ([=E,G,B,_D]>G)=ED | [F,B,=D] z (([F,,F,]2 | [B,,,B,,])) z !>![B,,F,_A,]2 || %69
[K:C][M:2/4] !>![G,,D,G,]G,/G,/ G,.[A,,A,] | .[G,,G,].[F,,F,].[E,,E,].[D,,D,] | %71
 .[C,,C,] z [G,,,G,,] z | [C,,G,,C,] z [G,,,G,,] z | [C,,G,,C,] z [G,,,G,,] z | %74
 [C,,G,,C,] z [G,,,G,,] z |:"^ben staccato" [C,,G,,C,] z [G,,,G,,] z | [C,,G,,C,] z [G,,,G,,] z | %77
 [C,,G,,C,] z"^poco       cre  _   scen  _    do" [G,,,G,,] z | [C,,G,,C,] z [G,,,G,,] z | %79
 [C,,G,,C,] z [G,,,G,,] z | [C,,G,,C,] z [G,,,G,,] z | [D,,G,,D,]"_marcato"G,,/G,,/ G,,G,, | %82
 G,,2 z2 | [D,,G,,D,] z [G,,,G,,] z | [D,,G,,D,] z [G,,,G,,] z | %85
 [D,,G,,D,] z"^poco    crescendo" [G,,,G,,] z | [D,,G,,D,] z [G,,,G,,] z | %87
 [D,,G,,D,] z [G,,,G,,] z | [D,,G,,D,] z [G,,,G,,] z | [C,,G,,C,]"_marcato"G,,/G,,/ G,,G,, | %90
 G,,2 z2 | [C,,G,,C,] z [G,,,G,,] z | [C,,G,,C,] z [G,,,G,,] z | %93
 [C,,G,,C,] z"^crescen_" [G,,,G,,] z |"^_ do" [C,,G,,C,] z [G,,,G,,] z | %95
 [C,,G,,C,] z [G,,,G,,] z |1 [C,,G,,C,] z [G,,,G,,] z | [E,,E,][^G,B,E]/[G,B,E]/ [G,B,E][G,B,E] | %98
 [^G,B,E] z z2 | F,, ([A,D]F,[A,D]) | F,, ([A,D]F,[A,D]) | G,, ([G,C]E,[G,C]) | %102
 G,, ([G,C]E,[G,C]) | D,[F,G,B,]"^de    _    cre    _    scen   _   do" G,,[F,G,B,] | %104
 D,[F,G,B,] G,,[F,G,B,] | C,[E,G,C]/[E,G,C]/ [E,G,C][E,G,C] | C, z G,, z :|2,3,4 %107
 [C,,G,,C,] z [E,,C,E,] z | [F,,F,][D,F,A,]/[D,F,A,]/ [D,F,A,][D,F,A,] | [D,F,A,] z z2 | %110
 D,, ([A,D]F,[A,D]) | F,, ([A,D]F,[A,D]) | G,, ([G,C]E,[G,C]) | G,, ([G,C]E,[G,C]) | %114
 D,[F,G,B,] G,,[F,G,B,] | D,[F,G,B,] G,,[F,G,B,] | [C,G,C] z (([G,,G,]2 ||2 %117
 [C,C])) z/ E,/ E,>E, ||3,4,5 [C,C]"^Marsch D.S." z !>![C,,C,] z || (3E,B,,E, E,2- | %120
 E, z (([^D,,^D,]2 | [E,,E,])) z/ (B,/ !>!E2) | z3/2 G,/ G,>G, | (3G,D,G, G,2- | %124
 G, z (([^F,,^F,]2 | [G,,G,])) z/ (D/ !>!G2) | z2 (!>![_A,_A]2 | [G,G]) z (!>![F,F]2 | %128
 [_E,_E]) z (!>![_D,_D]2 | [C,C]) z (!>![_B,,_B,]2 | [_A,,_A,]2) [G,,G,]2 | %131
 [^F,,^F,] z/ (_A/ _E>C | _A,) z ((!>![^F,,^F,]2 | [G,,G,]))G,/G,/ G,G, | G, z"^Trio D.S." z2 |] %135
V:3
 x4 | x4 | x4 | x4 |: x4 | x4 | x4 | x2 !>![B,,,B,,]2 | x4 | x4 | x4 | x2 !>![B,,,B,,]2 | x4 | x4 | %14
 x4 | x2 !>![=A,,,=A,,]2 | x4 | x4 | x4 | x4 | x4 | x4 | x4 | x2 !>![B,,,B,,]2 | x4 | x4 | x4 | %27
 x2 !>![B,,,B,,]2 | x4 | x4 | x4 | x2 !>![_D,,_D,]2 | x4 | x4 | x4 |1 x4 :|2 x4 ||[K:Bb] x4 | x4 | %39
 x4 | x4 | x4 | x4 | x4 | x4 | x4 | x4 | x4 | x4 | x4 | x4 | x4 | x4 | x4 | x4 | x4 | x4 | x4 | %58
 x4 | x4 | x4 | x4 | x4 | x4 | x4 | x4 | x4 | x4 | x4 ||[K:C][M:2/4] x4 | x4 | x4 | x4 | x4 | x4 |: %75
 x4 | x4 | x4 | x4 | x4 | x4 | x4 | x4 | x4 | x4 | x4 | x4 | x4 | x4 | x4 | x4 | x4 | x4 | x4 | %94
 x4 | x4 |1 x4 | x4 | x4 | x4 | x4 | x4 | x4 | x4 | x4 | x4 | x4 :|2,3,4 x4 | x4 | x4 | x4 | x4 | %112
 x4 | x4 | x4 | x4 | x4 ||2 x4 ||3,4,5 x4 || x4 | x4 | x4 | x4 | x4 | x4 | x4 | x4 | x4 | x4 | x4 | %130
 x4 | x4 | x4 | x4 | x4 |] %135
V:4
 x4 | x4 | x4 | x4 |: x4 | x4 | x4 | x4 | x4 | x4 | x4 | x4 | x4 | x4 | x4 | x4 | x4 | x4 | %18
 c2 ^F2 | x4 | x4 | x4 | x4 | x4 | x4 | x4 | x4 | x4 | x4 | x4 | x4 | x4 |!8va(! x4 | x!8va)! x3 | %34
 x4 |1 x4 :|2 x4 ||[K:Bb] x4 | G!>(!GdF- | F z!>)! F2- | FF-FF- | F z E2- | E4 | D4 | x4 | x4 | %46
 G!>(!GdF- | F z!>)! F2 | x4 | x4 | x4 | x4 | x4 | x4 | x4 | x4 | x4 | x4 | x4 | x4 | x4 | x4 | %62
 x4 | x4 | x4 | x4 | x4 | x4 | x4 ||[K:C][M:2/4] x4 | x4 | x4 | x4 | x4 | x4 |: x4 | x4 | x4 | x4 | %79
 x4 | x4 | x4 | x4 | x4 | x4 | x4 | x4 | x4 | x4 | x4 | x4 | x4 | x4 | x4 | x4 | x4 |1 x4 | x4 | %98
 x4 | x4 | x4 | x4 | x4 | x4 | x4 | x4 | x4 :|2,3,4 x4 | x4 | x4 | x4 | x4 | x4 | x4 | x4 | x4 | %116
 x4 ||2 x4 ||3,4,5 x4 || x4 | x2 [A,C]2 | x4 | x4 | x4 | x2 [C_E]2 | x4 | x2 [df]2 | x2 [=Bd]2 | %128
 x2 [G_B]2 | x2 [=EG]2 | x4 | x4 | x4 | x4 | x4 |] %135

